src/icons/outline/media/cloud.svg

<svg width="24" height="24" viewBox="0 0 24 24" fill="none" xmlns="http://www.w3.org/2000/svg">
<g clip-path="url(#clip0_1_3272)">
<path d="M22.9377 14.0559C22.5532 12.1605 20.8386 10.8467 18.9162 10.8166C18.3966 7.55731 15.5182 5.06017 12.0058 5C9.42877 5.02006 7.09069 6.42407 5.89567 8.59026C4.59674 8.69054 3.39133 9.23209 2.47689 10.1547C1.50009 11.1375 0.970127 12.4312 1.0013 13.7951C0.99091 16.4026 2.99646 18.639 5.67745 19C5.70863 19 5.75019 19 5.78137 19H18.6772C18.8954 19 20.6411 18.9599 21.8569 17.8066C22.6155 17.0845 23 16.1017 23 14.9183C23 14.6275 22.9792 14.3266 22.9273 14.0458L22.9377 14.0559ZM20.7762 16.7335C19.9761 17.5057 18.6772 17.5158 18.6668 17.5057H5.84372C3.96286 17.2249 2.54963 15.6404 2.56002 13.7951V13.7751C2.53924 12.8123 2.90294 11.8897 3.59916 11.1977C4.29539 10.4957 5.22023 10.1046 6.2282 10.0845H6.36329C6.67503 10.0845 6.96599 9.91404 7.09069 9.63324C7.95318 7.74785 9.8756 6.52436 11.9851 6.5043C14.9258 6.55444 17.3159 8.82092 17.4302 11.659C17.4302 11.8797 17.5445 12.0802 17.7211 12.2206C17.8978 12.361 18.1264 12.4112 18.355 12.3711C19.7579 12.1003 21.1191 12.9928 21.3997 14.3467C21.4413 14.5272 21.4517 14.7077 21.4517 14.9083C21.4517 15.6905 21.2231 16.3123 20.7762 16.7335Z" fill="#1D1B20"/>
</g>
<defs>
<clipPath id="clip0_1_3272">
<rect width="24" height="24" fill="white"/>
</clipPath>
</defs>
</svg>

<svg xmlns="http://www.w3.org/2000/svg" width="24" height="24" fill="none" viewBox="0 0 24 24"><g clip-path="url(#a)"><path fill="currentColor" d="M22.938 14.056c-.385-1.895-2.1-3.21-4.022-3.24-.52-3.259-3.398-5.756-6.91-5.816-2.577.02-4.915 1.424-6.11 3.59a5.36 5.36 0 0 0-3.42 1.565c-.976.982-1.506 2.276-1.475 3.64C.991 16.403 2.996 18.64 5.677 19h13c.218 0 1.964-.04 3.18-1.193.759-.723 1.143-1.705 1.143-2.889 0-.29-.02-.591-.073-.872zm-2.162 2.678c-.8.772-2.099.782-2.11.772H5.845c-1.881-.281-3.294-1.866-3.284-3.71v-.02a3.5 3.5 0 0 1 1.04-2.578 3.77 3.77 0 0 1 2.628-1.114h.135c.312 0 .603-.17.728-.45.862-1.886 2.785-3.11 4.894-3.13 2.94.05 5.33 2.317 5.445 5.155 0 .22.114.421.291.562a.8.8 0 0 0 .634.15c1.403-.27 2.764.622 3.045 1.976.041.18.052.36.052.561 0 .783-.229 1.404-.676 1.826"/></g><defs><clipPath id="a"><path fill="currentColor" d="M0 0h24v24H0z"/></clipPath></defs></svg>
